lib/brands/icons/adobe-dimension.svg

<svg xmlns="http://www.w3.org/2000/svg" fill="none" aria-hidden="true" viewBox="0 0 48 48"><g id="adobe-dimension-Icon"><g id="Group"><path id="bg" fill="#013301" d="M6 19.0286C6 14.4681 6 12.1879 6.88752 10.4461C7.6682 8.9139 8.9139 7.6682 10.4461 6.88752C12.1879 6 14.4681 6 19.0286 6H28.9714C33.5319 6 35.8121 6 37.5539 6.88752C39.0861 7.6682 40.3318 8.9139 41.1125 10.4461C42 12.1879 42 14.4681 42 19.0286V28.9714C42 33.5319 42 35.8121 41.1125 37.5539C40.3318 39.0861 39.0861 40.3318 37.5539 41.1125C35.8121 42 33.5319 42 28.9714 42H19.0286C14.4681 42 12.1879 42 10.4461 41.1125C8.9139 40.3318 7.6682 39.0861 6.88752 37.5539C6 35.8121 6 33.5319 6 28.9714V19.0286Z"/><g id="Vector"><path fill="#33FF66" d="M11.1439 32.3114V16.5582C11.134 16.4559 11.2128 16.3635 11.313 16.36C11.5544 16.3438 11.9086 16.3314 12.3756 16.3229C12.8423 16.3147 13.3897 16.3065 14.0177 16.2981C14.6456 16.29 15.3138 16.2859 16.0222 16.2857C17.9542 16.2857 19.5561 16.6242 20.8281 17.3013C22.0335 17.9138 23.0308 18.8849 23.6898 20.0878C24.3256 21.2686 24.6436 22.6267 24.6438 24.1623C24.662 25.2368 24.4944 26.306 24.1486 27.3204C23.8461 28.1888 23.3874 28.9911 22.7962 29.6859C22.2367 30.3364 21.5806 30.8922 20.8522 31.333C20.1297 31.7699 19.3486 32.0954 18.5338 32.299C17.7358 32.5026 16.9169 32.6066 16.0946 32.6086H14.2954C13.6593 32.6086 13.0676 32.6045 12.5204 32.5963C11.9729 32.5877 11.5624 32.5753 11.2888 32.5591C11.1922 32.5591 11.1439 32.4765 11.1439 32.3114ZM14.4766 19.3323V29.5868C14.9602 29.5868 15.4419 29.637 15.9256 29.6363C16.656 29.646 17.3827 29.5288 18.075 29.2896C18.695 29.0735 19.2602 28.7181 19.7292 28.2493C20.2011 27.7662 20.5638 27.1828 20.7918 26.5402C21.0515 25.8019 21.1784 25.0214 21.1661 24.2366C21.1809 23.4971 21.058 22.7615 20.8039 22.0693C20.5773 21.4722 20.2175 20.9378 19.7534 20.5089C19.2792 20.0791 18.7185 19.762 18.1111 19.58C17.4329 19.3758 16.729 19.2756 16.0222 19.2828C15.6999 19.2828 15.4303 19.2869 15.2132 19.2952C14.9958 19.3037 14.7503 19.3161 14.4766 19.3323Z"/><path fill="#33FF66" d="M26.1197 32.3361V23.1219C26.1197 22.8413 26.1157 22.5276 26.1076 22.1807C26.0994 21.8339 26.0873 21.5037 26.0714 21.1899C26.0552 20.8764 26.0391 20.6287 26.0231 20.4468C25.9786 20.3301 26.084 20.2402 26.1922 20.2487H28.7038C29.1568 20.2334 29.2333 20.9094 29.2592 21.2642C29.7262 20.8447 30.2672 20.5209 30.8531 20.3106C31.4356 20.1038 32.0479 19.9991 32.6643 20.001C33.1444 20.0032 33.6211 20.0826 34.0771 20.2363C34.6036 20.409 35.0838 20.7047 35.4798 21.1001C35.8759 21.4956 36.1769 21.9799 36.3593 22.5151C36.6008 23.1509 36.7216 23.9724 36.7216 24.9796V32.3361C36.7216 32.4847 36.6572 32.559 36.5284 32.559H33.6062C33.4676 32.5794 33.3448 32.4535 33.3647 32.3113V25.2768C33.3791 24.8448 33.305 24.4145 33.1474 24.0136C32.5142 22.4934 30.4558 22.8271 29.4766 23.7659V32.3361C29.4766 32.4847 29.4121 32.559 29.2833 32.559H26.337C26.2123 32.5772 26.1019 32.464 26.1197 32.3361Z"/></g></g></g></svg>

<svg xmlns="http://www.w3.org/2000/svg" fill="none" aria-hidden="true" viewBox="0 0 48 48"><path fill="#013301" d="M6 19.029c0-4.56 0-6.841.888-8.583a8.143 8.143 0 0 1 3.558-3.558C12.188 6 14.468 6 19.03 6h9.942c4.56 0 6.841 0 8.583.888a8.143 8.143 0 0 1 3.558 3.558C42 12.188 42 14.468 42 19.03v9.942c0 4.56 0 6.841-.888 8.583a8.143 8.143 0 0 1-3.558 3.558C35.812 42 33.532 42 28.97 42h-9.94c-4.56 0-6.841 0-8.583-.888a8.143 8.143 0 0 1-3.558-3.558C6 35.812 6 33.532 6 28.97v-9.94Z"/><path fill="#3F6" d="M11.144 32.311V16.558a.18.18 0 0 1 .169-.198c.241-.016.596-.029 1.063-.037.466-.008 1.014-.017 1.642-.025a159.35 159.35 0 0 1 2.004-.012c1.932 0 3.534.338 4.806 1.015a6.764 6.764 0 0 1 2.862 2.787c.636 1.18.954 2.539.954 4.074a9.302 9.302 0 0 1-.495 3.158 7.411 7.411 0 0 1-1.353 2.366 8.09 8.09 0 0 1-1.944 1.647 8.43 8.43 0 0 1-2.318.966 9.962 9.962 0 0 1-2.44.31h-1.799c-.636 0-1.227-.005-1.775-.013a31.016 31.016 0 0 1-1.231-.037c-.097 0-.145-.082-.145-.248Zm3.333-12.979v10.255c.483 0 .965.05 1.449.05a6.343 6.343 0 0 0 2.149-.347 4.38 4.38 0 0 0 1.654-1.04 4.688 4.688 0 0 0 1.063-1.71 6.63 6.63 0 0 0 .374-2.303 5.946 5.946 0 0 0-.362-2.168 4.108 4.108 0 0 0-1.05-1.56 4.272 4.272 0 0 0-1.643-.929 6.996 6.996 0 0 0-2.089-.297 21.81 21.81 0 0 0-1.545.05ZM26.12 32.336v-9.214a40.64 40.64 0 0 0-.049-1.932 21.787 21.787 0 0 0-.048-.743c-.044-.117.061-.207.17-.198h2.51c.454-.016.53.66.556 1.015a4.825 4.825 0 0 1 1.594-.953 5.363 5.363 0 0 1 1.811-.31c.48.002.957.082 1.413.235a3.554 3.554 0 0 1 1.403.864c.396.396.697.88.88 1.415.24.636.362 1.457.362 2.465v7.356c0 .149-.065.223-.194.223h-2.922a.218.218 0 0 1-.241-.248v-7.034a3.166 3.166 0 0 0-.218-1.263c-.633-1.52-2.691-1.187-3.67-.248v8.57c0 .149-.065.223-.194.223h-2.946a.196.196 0 0 1-.217-.223Z"/></svg>
